!!!OTL: Der arme Reutersknab.
!!!ARE: Europa, Mitteleuropa, Deutschland
!!!SCT: A0428
!!!TXL: @@GMH
!!!YEM: Copyright 1995, estate of Helmut Schaffrath.
**kern	**text
*M3/1	*
*met(C|3)	*
*clefC4	*
*k[b-]	*
*d:dor	*
=1	=1
!LO:TX:a:t=dor.	!
1ryy	.
1ryy	.
{1d	Fraw
=2	=2
*lig	*
1d	wir-
1d	-tin,
*Xlig	*
1f	habt
=3	=3
*lig	*
1e	ir
1e	uns
*Xlig	*
1d	nit
=4	=4
0c	gern
1A	im
=5	=5
0F}	haus,
{1F	ſo
=6	=6
0A	jagt
1A	uns
=7	=7
0c	güt-
1c	-lich
=8	=8
1.d	wi-
2e	-de-
1f	-rumb
=9	=9
0e}	aus,
{1d	als
=10	=10
0c	wer
1F	wir
=11	=11
0A	euch
1D	un-
=12	=12
0.E	-me-
=13	=13
0.D}	-re.
=14	=14
{1r	.
1r	.
1d	Fraw
=15	=15
*lig	*
1d	wir-
1d	-tin,
*Xlig	*
1f	habt
=16	=16
*lig	*
1e	ir
1e	uns
*Xlig	*
1d	nit
=17	=17
0c	gern
1A	im
=18	=18
0F}	haus,
{1F	ſo
=19	=19
0A	jagt
1A	uns
=20	=20
0c	güt-
1c	-lich
=21	=21
1.d	wi-
2e	-de-
1f	-rumb
=22	=22
0e}	aus,
{1d	als
=23	=23
0c	wer
1F	wir
=24	=24
0A	euch
1D	un-
=25	=25
0.E	-me-
=26	=26
0.D}	-re.
==	==
!!!GTL: Landsknecht- und Reiterlieder
!!!AGN: Romanze, Ballade, Lied, Kriegslied
!! Ott 1534 No. 93.
!!!ONB: ESAC (Essen Associative Code) Database: ALTDEU
!!!AMT: simple triple
!!!AIN: vox
!!!EED: Helmut Schaffrath
!!!EEV: 1.0
!!!AMD: Dorian
!!!URL-scan: https://rosdok.uni-rostock.de/mcrviewer/recordIdentifier/rosdok_ppn738218359/iview2/phys_0607.iview2?x=-1294.6859637568468&y=1619.0206815944985&scale=0.3170017948926&rotation=0&layout=singlePageLayout&logicalDiv=log_0016
!!!ENC: Anna Maria Matuszewska
!!!EEV: 2024/18/03
*-	*-
